;Generated with Cura_SteamEngine 17.08.16
;Cura17.08.16-Neutro32
M190 S50.000000
M140 S70.000000
M109 S210.000000
;Sliced at: Sat 16-02-2019 21:18:54
;Basic settings: Layer height: 0.15 Walls: 0.8 Fill: 100
;Print time: #P_TIME#
;Filament used: #F_AMNT#m #F_WGHT#g
;Filament cost: #F_COST#
;M190 S70 ;Uncomment to add your own bed temperature line
;M109 S210 ;Uncomment to add your own temperature line
G21              ;metric values
G90              ;absolute positioning
M82              ;set extruder to absolute mode
M107             ;start with the fan off
G28 X0 Y0        ;move X/Y to min endstops
G28 Z0           ;move Z to min endstops
G1 Z1.50 F6000 ;move the platform down 1.5mm
G92 E0 B0                       ;zero the extruded length
G1 F200 E8 B2                   ;extrude 8mm of feed stock
G92 E0 B0                       ;zero the extruded length again
G1 F6000
;Put printing message on LCD screen
M117 Printing...

M305 S1 $57 	;check Command 
;Layer count: 132
;LAYER:-2
;RAFT
G0 F6000 X133.050 Y133.050 Z0.300 E 18.77479 B0.00000 $85
G92 E0 B0 $75
G92 E0.5 B0.5 $75
G92 E0 B0 $75
;TYPE:SUPPORT
G1 F1200 X182.050 Y133.050 E6.11155 $84
G1 X182.050 Y182.050 E12.22310 $13
G1 X149.050 Y182.050 E16.33904 $1
G1 X149.050 Y166.050 E18.33465 $15
G1 X133.050 Y166.050 E20.33026 $10
G1 X133.050 Y133.050 E24.44620 $14
G0 F6000 X133.500 Y132.900 $27
G1 F1200 X133.500 Y166.200 E28.59956 $98
G0 F6000 X136.500 Y166.200 $20
G1 F1200 X136.500 Y132.900 E32.75292 $107
G0 F6000 X139.500 Y132.900 $17
G1 F1200 X139.500 Y166.200 E36.90628 $100
G0 F6000 X142.500 Y166.200 $23
G1 F1200 X142.500 Y132.900 E41.05964 $105
G0 F6000 X145.500 Y132.900 $26
G1 F1200 X145.500 Y166.200 E45.21300 $110
G0 F6000 X148.500 Y166.200 $29
G1 F1200 X148.500 Y132.900 E49.36636 $99
G0 F6000 X151.500 Y132.900 $31
G1 F1200 X151.500 Y182.200 E55.51532 $96
G0 F6000 X154.500 Y182.200 $26
G1 F1200 X154.500 Y132.900 E61.66429 $109
G0 F6000 X157.500 Y132.900 $25
G1 F1200 X157.500 Y182.200 E67.81326 $105
G0 F6000 X160.500 Y182.200 $29
G1 F1200 X160.500 Y132.900 E73.96223 $106
G0 F6000 X163.500 Y132.900 $30
G1 F1200 X163.500 Y182.200 E80.11119 $96
G0 F6000 X166.500 Y182.200 $27
G1 F1200 X166.500 Y132.900 E86.26016 $105
G0 F6000 X169.500 Y132.900 $20
G1 F1200 X169.500 Y182.200 E92.40913 $111
G0 F6000 X172.500 Y182.200 $30
G1 F1200 X172.500 Y132.900 E98.55810 $105
G0 F6000 X175.500 Y132.900 $25
G1 F1200 X175.500 Y182.200 E104.70706 $85
G0 F6000 X178.500 Y182.200 $20
G1 F1200 X178.500 Y132.900 E110.85603 $83
G0 F6000 X181.500 Y132.900 $18
G1 F1200 X181.500 Y182.200 E117.00500 $95
;LAYER:-1
;RAFT
G0 F6000 X181.544 Y182.109 Z0.570 $78
;TYPE:SUPPORT
G1 F1200 X132.989 Y133.555 E120.08820 $84
G0 F6000 X133.555 Y132.989 $26
G1 F1200 X182.109 Y181.544 E123.17141 $85
G0 F6000 X182.109 Y180.412 $27
G1 F1200 X134.686 Y132.989 E126.18276 $80
G0 F6000 X135.818 Y132.989 $24
G1 F1200 X182.109 Y179.281 E129.12226 $81
G0 F6000 X182.109 Y178.149 $23
G1 F1200 X136.949 Y132.989 E131.98992 $81
G0 F6000 X138.080 Y132.989 $28
G1 F1200 X182.109 Y177.018 E134.78575 $92
G0 F6000 X182.109 Y175.887 $17
G1 F1200 X139.212 Y132.989 E137.50974 $81
G0 F6000 X140.343 Y132.989 $31
G1 F1200 X182.109 Y174.755 E140.16187 $83
G0 F6000 X182.109 Y173.624 $16
G1 F1200 X141.475 Y132.989 E142.74216 $82
G0 F6000 X142.606 Y132.989 $25
G1 F1200 X182.109 Y172.493 E145.25062 $83
G0 F6000 X182.109 Y171.361 $22
G1 F1200 X143.737 Y132.989 E147.68724 $89
G0 F6000 X144.869 Y132.989 $24
G1 F1200 X182.109 Y170.230 E150.05201 $95
G0 F6000 X182.109 Y169.098 $26
G1 F1200 X146.000 Y132.989 E152.34492 $92
G0 F6000 X147.131 Y132.989 $31
G1 F1200 X182.109 Y167.967 E154.56602 $85
G0 F6000 X182.109 Y166.836 $25
G1 F1200 X148.263 Y132.989 E156.71527 $95
G0 F6000 X149.394 Y132.989 $28
G1 F1200 X182.109 Y165.704 E158.79267 $90
G0 F6000 X182.109 Y164.573 $23
G1 F1200 X150.526 Y132.989 E160.79822 $85
G0 F6000 X151.657 Y132.989 $31
G1 F1200 X182.109 Y163.442 E162.73195 $80
G0 F6000 X182.109 Y162.310 $18
G1 F1200 X152.788 Y132.989 E164.59383 $87
G0 F6000 X153.920 Y132.989 $18
G1 F1200 X182.109 Y161.179 E166.38385 $87
G0 F6000 X182.109 Y160.047 $17
G1 F1200 X155.051 Y132.989 E168.10203 $91
G0 F6000 X156.182 Y132.989 $23
G1 F1200 X182.109 Y158.916 E169.74839 $87
G0 F6000 X182.109 Y157.785 $28
G1 F1200 X157.314 Y132.989 E171.32291 $88
G0 F6000 X158.445 Y132.989 $23
G1 F1200 X182.109 Y156.653 E172.82557 $81
G0 F6000 X182.109 Y155.522 $17
G1 F1200 X159.577 Y132.989 E174.25638 $81
G0 F6000 X160.708 Y132.989 $22
G1 F1200 X182.109 Y154.391 E175.61537 $84
G0 F6000 X182.109 Y153.259 $28
G1 F1200 X161.839 Y132.989 E176.90251 $90
G0 F6000 X162.971 Y132.989 $20
G1 F1200 X182.109 Y152.128 E178.11780 $86
G0 F6000 X182.109 Y150.996 $23
G1 F1200 X164.102 Y132.989 E179.26125 $92
G0 F6000 X165.233 Y132.989 $30
G1 F1200 X182.109 Y149.865 E180.33287 $89
G0 F6000 X182.109 Y148.734 $24
G1 F1200 X166.365 Y132.989 E181.33264 $88
G0 F6000 X167.496 Y132.989 $21
G1 F1200 X182.109 Y147.602 E182.26057 $81
G0 F6000 X182.109 Y146.471 $20
G1 F1200 X168.627 Y132.989 E183.11667 $80
G0 F6000 X169.759 Y132.989 $27
G1 F1200 X182.109 Y145.340 E183.90093 $84
G0 F6000 X182.109 Y144.208 $30
G1 F1200 X170.890 Y132.989 E184.61333 $95
G0 F6000 X172.022 Y132.989 $26
G1 F1200 X182.109 Y143.077 E185.25389 $85
G0 F6000 X182.109 Y141.946 $26
G1 F1200 X173.153 Y132.989 E185.82262 $83
G0 F6000 X174.284 Y132.989 $18
G1 F1200 X182.109 Y140.814 E186.31951 $82
G0 F6000 X182.109 Y139.683 $19
G1 F1200 X175.416 Y132.989 E186.74455 $89
G0 F6000 X176.547 Y132.989 $24
G1 F1200 X182.109 Y138.551 E187.09773 $85
G0 F6000 X182.109 Y137.420 $22
G1 F1200 X177.678 Y132.989 E187.37910 $91
G0 F6000 X178.810 Y132.989 $25
G1 F1200 X182.109 Y136.289 E187.58862 $82
G0 F6000 X182.109 Y135.157 $17
G1 F1200 X179.941 Y132.989 E187.72629 $84
G0 F6000 X181.073 Y132.989 $18
G1 F1200 X182.109 Y134.026 E187.79210 $91
G1 F2400 E183.29210 $95
G0 F6000 X148.990 Y166.526 $27
G1 F2400 E187.79210 B0 $12
G92 E0 B0 $75
G1 F1200 X164.573 Y182.109 E0.98952 $87
G0 F6000 X163.442 Y182.109 $19
G1 F1200 X148.990 Y167.657 E1.90722 $95
G0 F6000 X148.990 Y168.789 $18
G1 F1200 X162.310 Y182.109 E2.75304 $90
G0 F6000 X161.179 Y182.109 $28
G1 F1200 X148.990 Y169.920 E3.52704 $86
G0 F6000 X148.990 Y171.051 $24
G1 F1200 X160.047 Y182.109 E4.22919 $91
G0 F6000 X158.916 Y182.109 $23
G1 F1200 X148.990 Y172.183 E4.85949 $87
G0 F6000 X148.990 Y173.314 $24
G1 F1200 X157.785 Y182.109 E5.41797 $90
G0 F6000 X156.653 Y182.109 $23
G1 F1200 X148.990 Y174.446 E5.90457 $90
G0 F6000 X148.990 Y175.577 $29
G1 F1200 X155.522 Y182.109 E6.31935 $85
G0 F6000 X154.391 Y182.109 $30
G1 F1200 X148.990 Y176.708 E6.66231 $93
G0 F6000 X148.990 Y177.840 $22
G1 F1200 X153.259 Y182.109 E6.93339 $86
G0 F6000 X152.128 Y182.109 $24
G1 F1200 X148.990 Y178.971 E7.13265 $81
G0 F6000 X148.990 Y180.102 $17
G1 F1200 X150.996 Y182.109 E7.26007 $92
G0 F6000 X149.865 Y182.109 $18
G1 F1200 X148.990 Y181.234 E7.31563 $92
G0 F6000 X148.573 Y166.109 $19
G1 F1200 X132.989 Y150.526 E8.30518 $83
G0 F6000 X132.989 Y151.657 $31
G1 F1200 X147.441 Y166.109 E9.22288 $88
G0 F6000 X146.310 Y166.109 $30
G1 F1200 X132.989 Y152.788 E10.06876 $110
G0 F6000 X132.989 Y153.920 $18
G1 F1200 X145.178 Y166.109 E10.84276 $96
G0 F6000 X144.047 Y166.109 $29
G1 F1200 X132.989 Y155.051 E11.54494 $108
G0 F6000 X132.989 Y156.182 $23
G1 F1200 X142.916 Y166.109 E12.17530 $106
G0 F6000 X141.784 Y166.109 $16
G1 F1200 X132.989 Y157.314 E12.73379 $110
G0 F6000 X132.989 Y158.445 $23
G1 F1200 X140.653 Y166.109 E13.22045 $102
G0 F6000 X139.522 Y166.109 $17
G1 F1200 X132.989 Y159.577 E13.63526 $111
G0 F6000 X132.989 Y160.708 $22
G1 F1200 X138.390 Y166.109 E13.97822 $100
G0 F6000 X137.259 Y166.109 $20
G1 F1200 X132.989 Y161.839 E14.24937 $107
G0 F6000 X132.989 Y162.971 $20
G1 F1200 X136.127 Y166.109 E14.44863 $104
G0 F6000 X134.996 Y166.109 $31
G1 F1200 X132.989 Y164.102 E14.57608 $104
G0 F6000 X132.989 Y165.233 $30
G1 F1200 X133.865 Y166.109 E14.63170 $108
G0 F6000 X132.989 Y149.394 $28
G1 F1200 X165.704 Y182.109 E16.70910 $99
G0 F6000 X166.836 Y182.109 $25
G1 F1200 X132.989 Y148.263 E18.85835 $97
G0 F6000 X132.989 Y147.131 $31
G1 F1200 X167.967 Y182.109 E21.07945 $110
G0 F6000 X169.098 Y182.109 $26
G1 F1200 X132.989 Y146.000 E23.37236 $96
G0 F6000 X132.989 Y144.869 $24
G1 F1200 X170.230 Y182.109 E25.73713 $107
G0 F6000 X171.361 Y182.109 $22
G1 F1200 X132.989 Y143.737 E28.17375 $105
G0 F6000 X132.989 Y142.606 $25
G1 F1200 X172.493 Y182.109 E30.68221 $108
G0 F6000 X173.624 Y182.109 $16
G1 F1200 X132.989 Y141.475 E33.26250 $96
G0 F6000 X132.989 Y140.343 $31
G1 F1200 X174.755 Y182.109 E35.91463 $96
G0 F6000 X175.887 Y182.109 $17
G1 F1200 X132.989 Y139.212 E38.63862 $105
G0 F6000 X132.989 Y138.080 $28
G1 F1200 X177.018 Y182.109 E41.43445 $101
G0 F6000 X178.149 Y182.109 $23
G1 F1200 X132.989 Y136.949 E44.30211 $96
G0 F6000 X132.989 Y135.818 $24
G1 F1200 X179.281 Y182.109 E47.24161 $109
G0 F6000 X180.412 Y182.109 $27
G1 F1200 X132.989 Y134.686 E50.25296 $96
;LAYER:-1
;RAFT
G0 F6000 X132.989 Y134.600 Z0.840 $70
;TYPE:SUPPORT
G1 F1200 X182.109 Y134.600 E52.45851 $96
G0 F6000 X182.109 Y135.000 $18
G1 F1200 X132.989 Y135.000 E54.66406 $101
G0 F6000 X132.989 Y135.400 $29
G1 F1200 X182.109 Y135.400 E56.86960 $107
G0 F6000 X182.109 Y135.800 $26
G1 F1200 X132.989 Y135.800 E59.07515 $100
G0 F6000 X132.989 Y136.200 $24
G1 F1200 X182.109 Y136.200 E61.28069 $110
G0 F6000 X182.109 Y136.600 $23
G1 F1200 X132.989 Y136.600 E63.48624 $106
G0 F6000 X132.989 Y137.000 $27
G1 F1200 X182.109 Y137.000 E65.69179 $108
G0 F6000 X182.109 Y137.400 $20
G1 F1200 X132.989 Y137.400 E67.89733 $103
G0 F6000 X132.989 Y137.800 $19
G1 F1200 X182.109 Y137.800 E70.10288 $99
G0 F6000 X182.109 Y138.200 $29
G1 F1200 X132.989 Y138.200 E72.30843 $96
G0 F6000 X132.989 Y138.600 $18
G1 F1200 X182.109 Y138.600 E74.51397 $108
G0 F6000 X182.109 Y139.000 $30
G1 F1200 X132.989 Y139.000 E76.71952 $99
G0 F6000 X132.989 Y139.400 $17
G1 F1200 X182.109 Y139.400 E78.92506 $98
G0 F6000 X182.109 Y139.800 $22
G1 F1200 X132.989 Y139.800 E81.13061 $110
G0 F6000 X132.989 Y140.200 $25
G1 F1200 X182.109 Y140.200 E83.33616 $103
G0 F6000 X182.109 Y140.600 $22
G1 F1200 X132.989 Y140.600 E85.54170 $104
G0 F6000 X132.989 Y141.000 $26
G1 F1200 X182.109 Y141.000 E87.74725 $98
G0 F6000 X182.109 Y141.400 $21
G1 F1200 X132.989 Y141.400 E89.95279 $96
G0 F6000 X132.989 Y141.800 $18
G1 F1200 X182.109 Y141.800 E92.15834 $102
G0 F6000 X182.109 Y142.200 $16
G1 F1200 X132.989 Y142.200 E94.36389 $110
G0 F6000 X132.989 Y142.600 $31
G1 F1200 X182.109 Y142.600 E96.56943 $105
G0 F6000 X182.109 Y143.000 $19
G1 F1200 X132.989 Y143.000 E98.77498 $99
G0 F6000 X132.989 Y143.400 $28
G1 F1200 X182.109 Y143.400 E100.98052 $95
G0 F6000 X182.109 Y143.800 $27
G1 F1200 X132.989 Y143.800 E103.18607 $85
G0 F6000 X132.989 Y144.200 $29
G1 F1200 X182.109 Y144.200 E105.39162 $82
G0 F6000 X182.109 Y144.600 $18
G1 F1200 X132.989 Y144.600 E107.59716 $92
G0 F6000 X132.989 Y145.000 $30
G1 F1200 X182.109 Y145.000 E109.80271 $94
G0 F6000 X182.109 Y145.400 $17
G1 F1200 X132.989 Y145.400 E112.00825 $88
G0 F6000 X132.989 Y145.800 $22
G1 F1200 X182.109 Y145.800 E114.21380 $94
G0 F6000 X182.109 Y146.200 $20
G1 F1200 X132.989 Y146.200 E116.41935 $92
G0 F6000 X132.989 Y146.600 $27
G1 F1200 X182.109 Y146.600 E118.62489 $86
G0 F6000 X182.109 Y147.000 $23
G1 F1200 X132.989 Y147.000 E120.83044 $91
G0 F6000 X132.989 Y147.400 $24
G1 F1200 X182.109 Y147.400 E123.03598 $91
G0 F6000 X182.109 Y147.800 $31
G1 F1200 X132.989 Y147.800 E125.24153 $92
G0 F6000 X132.989 Y148.200 $17
G1 F1200 X182.109 Y148.200 E127.44708 $94
G0 F6000 X182.109 Y148.600 $30
G1 F1200 X132.989 Y148.600 E129.65262 $85
G0 F6000 X132.989 Y149.000 $18
G1 F1200 X182.109 Y149.000 E131.85817 $86
G0 F6000 X182.109 Y149.400 $29
G1 F1200 X132.989 Y149.400 E134.06372 $95
G0 F6000 X132.989 Y149.800 $26
G1 F1200 X182.109 Y149.800 E136.26926 $83
G0 F6000 X182.109 Y150.200 $19
G1 F1200 X132.989 Y150.200 E138.47481 $83
G0 F6000 X132.989 Y150.600 $28
G1 F1200 X182.109 Y150.600 E140.68035 $85
G0 F6000 X182.109 Y151.000 $16
G1 F1200 X132.989 Y151.000 E142.88590 $95
G0 F6000 X132.989 Y151.400 $31
G1 F1200 X182.109 Y151.400 E145.09145 $82
G0 F6000 X182.109 Y151.800 $24
G1 F1200 X132.989 Y151.800 E147.29699 $83
G0 F6000 X132.989 Y152.200 $26
G1 F1200 X182.109 Y152.200 E149.50254 $84
G0 F6000 X182.109 Y152.600 $21
G1 F1200 X132.989 Y152.600 E151.70808 $83
G0 F6000 X132.989 Y153.000 $25
G1 F1200 X182.109 Y153.000 E153.91363 $84
G0 F6000 X182.109 Y153.400 $22
G1 F1200 X132.989 Y153.400 E156.11918 $80
G0 F6000 X132.989 Y153.800 $17
G1 F1200 X182.109 Y153.800 E158.32472 $89
G0 F6000 X182.109 Y154.200 $23
G1 F1200 X132.989 Y154.200 E160.53027 $87
G0 F6000 X132.989 Y154.600 $24
G1 F1200 X182.109 Y154.600 E162.73581 $81
G0 F6000 X182.109 Y155.000 $20
G1 F1200 X132.989 Y155.000 E164.94136 $90
G0 F6000 X132.989 Y155.400 $27
G1 F1200 X182.109 Y155.400 E167.14691 $84
G0 F6000 X182.109 Y155.800 $28
G1 F1200 X132.989 Y155.800 E169.35245 $83
G0 F6000 X132.989 Y156.200 $30
G1 F1200 X182.109 Y156.200 E171.55800 $85
G0 F6000 X182.109 Y156.600 $17
G1 F1200 X132.989 Y156.600 E173.76354 $83
G0 F6000 X132.989 Y157.000 $29
G1 F1200 X182.109 Y157.000 E175.96909 $85
G0 F6000 X182.109 Y157.400 $18
G1 F1200 X132.989 Y157.400 E178.17464 $88
G0 F6000 X132.989 Y157.800 $21
G1 F1200 X182.109 Y157.800 E180.38018 $90
G0 F6000 X182.109 Y158.200 $27
G1 F1200 X132.989 Y158.200 E182.58573 $88
G0 F6000 X132.989 Y158.600 $20
G1 F1200 X182.109 Y158.600 E184.79128 $88
G0 F6000 X182.109 Y159.000 $24
G1 F1200 X132.989 Y159.000 E186.99682 $95
G0 F6000 X132.989 Y159.400 $23
G1 F1200 X182.109 Y159.400 E189.20237 $87
G0 F6000 X182.109 Y159.800 $16
G1 F1200 X132.989 Y159.800 E191.40791 $86
G0 F6000 X132.989 Y160.200 $27
G1 F1200 X182.109 Y160.200 E193.61346 $82
G0 F6000 X182.109 Y160.600 $20
G1 F1200 X132.989 Y160.600 E195.81901 $92
G0 F6000 X132.989 Y161.000 $24
G1 F1200 X182.109 Y161.000 E198.02455 $90
G0 F6000 X182.109 Y161.400 $23
G1 F1200 X132.989 Y161.400 E200.23010 $81
G0 F6000 X132.989 Y161.800 $16
G1 F1200 X182.109 Y161.800 E202.43564 $84
G0 F6000 X182.109 Y162.200 $18
G1 F1200 X132.989 Y162.200 E204.64119 $91
G0 F6000 X132.989 Y162.600 $29
G1 F1200 X182.109 Y162.600 E206.84674 $84
G0 F6000 X182.109 Y163.000 $17
G1 F1200 X132.989 Y163.000 E209.05228 $83
G0 F6000 X132.989 Y163.400 $30
G1 F1200 X182.109 Y163.400 E211.25783 $83
G0 F6000 X182.109 Y163.800 $25
G1 F1200 X132.989 Y163.800 E213.46337 $88
G0 F6000 X132.989 Y164.200 $31
G1 F1200 X182.109 Y164.200 E215.66892 $94
G0 F6000 X182.109 Y164.600 $16
G1 F1200 X132.989 Y164.600 E217.87447 $88
G0 F6000 X132.989 Y165.000 $28
G1 F1200 X182.109 Y165.000 E220.08001 $81
G0 F6000 X182.109 Y165.400 $19
G1 F1200 X132.989 Y165.400 E222.28556 $89
G0 F6000 X132.989 Y165.800 $20
G1 F1200 X182.109 Y165.800 E224.49110 $89
G0 F6000 X182.109 Y166.200 $22
G1 F1200 X148.989 Y166.200 E225.97823 $93
G0 F6000 X148.989 Y166.600 $20
G1 F1200 X182.109 Y166.600 E227.46536 $88
G0 F6000 X182.109 Y167.000 $21
G1 F1200 X148.989 Y167.000 E228.95249 $87
G0 F6000 X148.989 Y167.400 $23
G1 F1200 X182.109 Y167.400 E230.43961 $86
G0 F6000 X182.109 Y167.800 $29
G1 F1200 X148.989 Y167.800 E231.92674 $90
G0 F6000 X148.989 Y168.200 $30
G1 F1200 X182.109 Y168.200 E233.41387 $92
G0 F6000 X182.109 Y168.600 $28
G1 F1200 X148.989 Y168.600 E234.90099 $89
G0 F6000 X148.989 Y169.000 $29
G1 F1200 X182.109 Y169.000 E236.38812 $83
G0 F6000 X182.109 Y169.400 $31
G1 F1200 X148.989 Y169.400 E237.87525 $93
G0 F6000 X148.989 Y169.800 $21
G1 F1200 X182.109 Y169.800 E239.36238 $88
G0 F6000 X182.109 Y170.200 $17
G1 F1200 X148.989 Y170.200 E240.84950 $94
G0 F6000 X148.989 Y170.600 $19
G1 F1200 X182.109 Y170.600 E242.33663 $93
G0 F6000 X182.109 Y171.000 $18
G1 F1200 X148.989 Y171.000 E243.82376 $86
G0 F6000 X148.989 Y171.400 $16
G1 F1200 X182.109 Y171.400 E245.31088 $88
G0 F6000 X182.109 Y171.800 $26
G1 F1200 X148.989 Y171.800 E246.79801 $84
G0 F6000 X148.989 Y172.200 $21
G1 F1200 X182.109 Y172.200 E248.28514 $88
G0 F6000 X182.109 Y172.600 $23
G1 F1200 X148.989 Y172.600 E249.77227 $86
G0 F6000 X148.989 Y173.000 $22
